X:582
T:Reel 582
M:4/4
K:Dmix
L:1/8
ed|cAAB cAGB|AGEF DGBd|cAAB cded|eAGE D2|AB|cAec dced|cAGE E2de|cAAG cded|cAGE E2D2|cdef gfed|cAGE EDD2|AcdB cded|cAGE D2|
